modules/hawcons-filled/icons/two-fingers-swipe-up.svg

<?xml version="1.0" encoding="UTF-8" standalone="no"?>
<svg width="32px" height="32px" viewBox="0 0 32 32" version="1.1" xmlns="http://www.w3.org/2000/svg" xmlns:xlink="http://www.w3.org/1999/xlink" xmlns:sketch="http://www.bohemiancoding.com/sketch/ns">
    <!-- Generator: Sketch 3.0.3 (7891) - http://www.bohemiancoding.com/sketch -->
    <title>icon 35 two fingers swipe up</title>
    <desc>Created with Sketch.</desc>
    <defs></defs>
    <g id="Page-1" stroke="none" stroke-width="1" fill="none" fill-rule="evenodd" sketch:type="MSPage">
        <g id="icon-35-two-fingers-swipe-up" sketch:type="MSArtboardGroup" fill="#929292">
            <path d="M21,10.0774501 C18.7500248,10.326063 17,12.2329919 17,14.5550259 L17,31.049999 L26,31.049999 L26,14.5550259 C26,12.2364699 24.2460491,10.3270019 22,10.0775935 L22,4 L25.25,7.25 L26,6.5 L21.5,2 L17,6.5 L17.75,7.25 L21,4 L21,4 L21,10.0774501 L21,10.0774501 Z M10,13.0774325 C7.75002477,13.3258762 6,15.2313026 6,17.545727 L6,31.049999 L15,31.049999 L15,17.545727 C15,15.2319568 13.2460491,13.3264302 11,13.0775365 L11,7 L14.25,10.25 L15,9.5 L10.5,5 L6,9.5 L6.75,10.25 L10,7 L10,13.0774325 L10,13.0774325 L10,13.0774325 Z M10.5,15.049999 C9.11928813,15.049999 8,16.1785531 8,17.5597742 L8,21.049999 L13,21.049999 L13,17.5597742 C13,16.1736636 11.8903379,15.049999 10.5,15.049999 L10.5,15.049999 Z M8,24.049999 L8,25.049999 L13,25.049999 L13,24.049999 L8,24.049999 L8,24.049999 Z M8,26.049999 L8,27.049999 L13,27.049999 L13,26.049999 L8,26.049999 L8,26.049999 Z M21.5,12.049999 C20.1192881,12.049999 19,13.1785531 19,14.5597742 L19,18.049999 L24,18.049999 L24,14.5597742 C24,13.1736636 22.8903379,12.049999 21.5,12.049999 L21.5,12.049999 Z M19,21.049999 L19,22.049999 L24,22.049999 L24,21.049999 L19,21.049999 L19,21.049999 Z M19,23.049999 L19,24.049999 L24,24.049999 L24,23.049999 L19,23.049999 L19,23.049999 Z" id="two-fingers-swipe-up" sketch:type="MSShapeGroup"></path>
        </g>
    </g>
</svg>

<svg width="32" height="32" viewBox="0 0 32 32" xmlns="http://www.w3.org/2000/svg"><path d="M21 10.077c-2.25.25-4 2.156-4 4.478V31.05h9V14.555a4.508 4.508 0 0 0-4-4.477V4l3.25 3.25.75-.75L21.5 2 17 6.5l.75.75L21 4v6.077zm-11 3c-2.25.249-4 2.154-4 4.469V31.05h9V17.546a4.502 4.502 0 0 0-4-4.468V7l3.25 3.25.75-.75L10.5 5 6 9.5l.75.75L10 7v6.077zm.5 1.973c-1.38 0-2.5 1.129-2.5 2.51v3.49h5v-3.49c0-1.386-1.11-2.51-2.5-2.51zm-2.5 9v1h5v-1H8zm0 2v1h5v-1H8zm13.5-14c-1.38 0-2.5 1.129-2.5 2.51v3.49h5v-3.49c0-1.386-1.11-2.51-2.5-2.51zm-2.5 9v1h5v-1h-5zm0 2v1h5v-1h-5z" fill="#929292" fill-rule="evenodd"/></svg>
